src/lib/packages/icons/src/assets/filled/link-broken-horizontal.svg

<svg width="24" height="24" viewBox="0 0 24 24" fill="none" xmlns="http://www.w3.org/2000/svg">
<path d="M16 18H14C13.447 18 13 17.552 13 17C13 16.448 13.447 16 14 16H16C18.206 16 20 14.206 20 12C20 9.79401 18.206 8.00001 16 8.00001H14C13.447 8.00001 13 7.55201 13 7.00001C13 6.44801 13.447 6.00001 14 6.00001H16C19.309 6.00001 22 8.69201 22 12C22 15.308 19.309 18 16 18ZM11 17C11 16.448 10.553 16 10 16H8C5.794 16 4 14.206 4 12C4 9.79401 5.794 8.00001 8 8.00001H10C10.553 8.00001 11 7.55201 11 7.00001C11 6.44801 10.553 6.00001 10 6.00001H8C4.691 6.00001 2 8.69201 2 12C2 15.308 4.691 18 8 18H10C10.553 18 11 17.552 11 17ZM11.207 4.70701C11.598 4.31701 11.598 3.68301 11.207 3.29301L10.207 2.29301C9.81603 1.90201 9.18397 1.90201 8.79297 2.29301C8.40197 2.68301 8.40197 3.31701 8.79297 3.70701L9.79297 4.70701C9.98797 4.90201 10.244 5.00001 10.5 5.00001C10.756 5.00001 11.012 4.90201 11.207 4.70701ZM14.207 4.70701L15.207 3.70701C15.598 3.31701 15.598 2.68301 15.207 2.29301C14.816 1.90201 14.184 1.90201 13.793 2.29301L12.793 3.29301C12.402 3.68301 12.402 4.31701 12.793 4.70701C12.988 4.90201 13.244 5.00001 13.5 5.00001C13.756 5.00001 14.012 4.90201 14.207 4.70701ZM15.207 21.707C15.598 21.317 15.598 20.683 15.207 20.293L14.207 19.293C13.816 18.902 13.184 18.902 12.793 19.293C12.402 19.683 12.402 20.317 12.793 20.707L13.793 21.707C13.988 21.902 14.244 22 14.5 22C14.756 22 15.012 21.902 15.207 21.707ZM10.207 21.707L11.207 20.707C11.598 20.317 11.598 19.683 11.207 19.293C10.816 18.902 10.184 18.902 9.79297 19.293L8.79297 20.293C8.40197 20.683 8.40197 21.317 8.79297 21.707C8.98797 21.902 9.244 22 9.5 22C9.756 22 10.012 21.902 10.207 21.707Z" fill="currentColor"/>
</svg>

<svg xmlns="http://www.w3.org/2000/svg" width="24" height="24" fill="none"><path fill="currentColor" d="M16 18h-2a1 1 0 1 1 0-2h2c2.206 0 4-1.794 4-4s-1.794-4-4-4h-2a1 1 0 1 1 0-2h2c3.309 0 6 2.692 6 6s-2.691 6-6 6Zm-5-1a1 1 0 0 0-1-1H8c-2.206 0-4-1.794-4-4s1.794-4 4-4h2a1 1 0 1 0 0-2H8c-3.309 0-6 2.692-6 6s2.691 6 6 6h2a1 1 0 0 0 1-1Zm.207-12.293a.999.999 0 0 0 0-1.414l-1-1a.999.999 0 1 0-1.414 1.414l1 1a.997.997 0 0 0 1.414 0Zm3 0 1-1a.999.999 0 1 0-1.414-1.414l-1 1a.999.999 0 1 0 1.414 1.414Zm1 17a.999.999 0 0 0 0-1.414l-1-1a.999.999 0 1 0-1.414 1.414l1 1a.997.997 0 0 0 1.414 0Zm-5 0 1-1a.999.999 0 1 0-1.414-1.414l-1 1a.999.999 0 1 0 1.414 1.414Z"/></svg>
